X: 36408
T: Sean Tiobrad Arann
R: jig
M: 6/8
K: Gmajor
|:d|cAF G2 F|ABA G2 d|cAG GFG|ADE FGd|
cAF G3|ABA GB/c/d|fdd e2 d|fdc A2:|
|:D|GB/c/d g2 f|gaf g2 e|dgg Ggg|a/b/ag ff/g/a|
bag agf|gfe f2 e|dcA d2 e|fed c2:|

